src/assets/icon-20-settings.svg

<?xml version="1.0" encoding="UTF-8"?>
<svg width="20px" height="20px" viewBox="0 0 20 20" version="1.1" xmlns="http://www.w3.org/2000/svg" xmlns:xlink="http://www.w3.org/1999/xlink">
    <g id="Assets" stroke="none" stroke-width="1" fill="none" fill-rule="evenodd">
        <g id="icon-20-settings" fill-rule="nonzero" fill="#202020">
            <path d="M10.5001943,9.125 C10.0169436,9.125 9.62519432,9.51669518 9.62519432,10 C9.62519432,10.4830903 10.0171041,10.875 10.5001943,10.875 C10.9834991,10.875 11.3751943,10.4832507 11.3751943,10 C11.3751943,9.51653475 10.9836596,9.125 10.5001943,9.125 Z M18.4851382,10.9921214 C18.9813914,11.2672987 19.149495,11.8997967 18.8553457,12.385045 L16.8751477,15.6517116 C16.5940834,16.1153741 15.9947171,16.2705848 15.5239329,16.0016197 L14.4578959,15.3925787 C14.1407516,15.6049557 13.8054688,15.7918697 13.4556399,15.9514257 L13.4556399,17 C13.4556399,17.5522847 13.0079246,18 12.4556399,18 L8.49524383,18 C7.94295908,18 7.49524383,17.5522847 7.49524383,17 L7.49524383,15.9538924 C7.15656754,15.8005158 6.83141272,15.6212099 6.52310743,15.4177219 L5.43746633,15.9756287 C4.9726881,16.2144764 4.40237544,16.0552013 4.12860967,15.6100953 L2.14841165,12.390562 C1.84792836,11.9020169 2.01908206,11.261369 2.52317691,10.9877728 L3.54860901,10.4312221 C3.52379626,10.1146464 3.5236608,9.79678114 3.54820263,9.48019128 L2.67775682,9.01549198 C2.17164175,8.74529559 1.99615199,8.10557542 2.29355776,7.61495503 L4.27375578,4.34828836 C4.54849612,3.89505838 5.12912834,3.73489831 5.59737326,3.98318517 L6.63803727,4.53499727 C6.92698316,4.35001346 7.23008111,4.18599112 7.54474878,4.04424923 L7.54474878,3 C7.54474878,2.44771525 7.99246403,2 8.54474878,2 L12.5051448,2 C13.0574296,2 13.5051448,2.44771525 13.5051448,3 L13.5051448,4.09062735 C13.8170428,4.23087435 14.1175806,4.39315359 14.4042216,4.57614606 L15.3915504,4.03602711 C15.8587667,3.78043609 16.4443228,3.93585157 16.723298,4.38949313 L18.703496,7.60949313 C19.0081618,8.10491021 18.8273966,8.75481175 18.3106823,9.02176812 L17.399868,9.4923332 C17.4211275,9.79104345 17.4205867,10.0907702 17.3982456,10.3894288 L18.4851382,10.9921214 Z M10.5001943,7.125 C12.0882291,7.125 13.3751943,8.41196525 13.3751943,10 C13.3751943,11.5877584 12.0881305,12.875 10.5001943,12.875 C8.91253457,12.875 7.62519432,11.5876597 7.62519432,10 C7.62519432,8.41206383 8.91243597,7.125 10.5001943,7.125 Z M15.8320821,11.8078786 C15.4522277,11.5972456 15.2517762,11.1654937 15.3360122,10.7393952 C15.4418854,10.2038481 15.4418854,9.6556852 15.3360122,9.12013814 C15.2496669,8.68337015 15.4624733,8.24212295 15.8580231,8.03776521 L16.4354782,7.73942758 L15.5175593,6.24679958 L14.816759,6.63017289 C14.4656389,6.82225342 14.0338124,6.78648255 13.7190836,6.53924564 C13.2668777,6.18401277 12.7494599,5.90729472 12.1913159,5.72281288 C11.7817475,5.58743935 11.5051448,5.20469425 11.5051448,4.77333333 L11.5051448,4 L9.54474878,4 L9.54474878,4.7262 C9.54474878,5.15701558 9.26883358,5.53940555 8.85998371,5.67521367 C8.30101705,5.86088625 7.78310669,6.13806487 7.3304622,6.49331871 C7.01946905,6.73739882 6.59387303,6.77535042 6.24459955,6.59014816 L5.49461267,6.19246762 L4.55133507,7.74856123 L5.10481004,8.04404135 C5.4952267,8.25247057 5.70220348,8.69273654 5.61362278,9.12635085 C5.5019888,9.67281409 5.5019888,10.2333859 5.61362278,10.7798492 C5.70169359,11.2109675 5.49760787,11.6489956 5.1108751,11.8588938 L4.40504336,12.2419822 L5.34700399,13.7734824 L6.15698173,13.357238 C6.50919635,13.1762362 6.93504107,13.2201263 7.24293348,13.4691625 C7.7038096,13.8419383 8.23612512,14.1324259 8.81212692,14.3248687 C9.22013376,14.4611843 9.49524383,14.8431572 9.49524383,15.2733333 L9.49524383,16 L11.4556399,16 L11.4556399,15.2733333 C11.4556399,14.8447039 11.7288069,14.4637427 12.1347721,14.3262093 C12.7298059,14.1246231 13.2774692,13.8202409 13.7481861,13.4300853 C14.0688736,13.1642822 14.5207347,13.1250917 14.8823963,13.3317137 L15.6699709,13.7816654 L16.6062295,12.2371509 L15.8320821,11.8078786 Z" id="Combined-Shape"></path>
        </g>
    </g>
</svg>

<svg width="20" height="20" xmlns="http://www.w3.org/2000/svg"><path d="M10.5 9.125a.875.875 0 1 0 0 1.75.875.875 0 0 0 0-1.75zm7.985 1.867a1 1 0 0 1 .37 1.393l-1.98 3.267a1 1 0 0 1-1.351.35l-1.066-.61c-.317.213-.653.4-1.002.56V17a1 1 0 0 1-1 1h-3.96a1 1 0 0 1-1-1v-1.046a7.028 7.028 0 0 1-.973-.536l-1.086.558a1 1 0 0 1-1.308-.366l-1.98-3.22a1 1 0 0 1 .374-1.402l1.026-.557a6.118 6.118 0 0 1 0-.95l-.871-.466a1 1 0 0 1-.384-1.4l1.98-3.267a1 1 0 0 1 1.323-.365l1.041.552c.289-.185.592-.349.907-.49V3a1 1 0 0 1 1-1h3.96a1 1 0 0 1 1 1v1.09c.312.14.613.303.9.486l.987-.54a1 1 0 0 1 1.331.353l1.98 3.22a1 1 0 0 1-.392 1.413l-.911.47c.021.299.02.599-.002.897l1.087.603zM10.5 7.125a2.875 2.875 0 1 1 0 5.75 2.875 2.875 0 0 1 0-5.75zm5.332 4.683a1 1 0 0 1-.496-1.069 4.167 4.167 0 0 0 0-1.619 1 1 0 0 1 .522-1.082l.577-.299-.917-1.492-.701.383a1 1 0 0 1-1.098-.09 5.025 5.025 0 0 0-1.528-.817 1 1 0 0 1-.686-.95V4h-1.96v.726a1 1 0 0 1-.685.95 5.06 5.06 0 0 0-1.53.817 1 1 0 0 1-1.085.097l-.75-.398L4.55 7.75l.554.295a1 1 0 0 1 .509 1.082 4.124 4.124 0 0 0 0 1.654 1 1 0 0 1-.503 1.079l-.706.383.942 1.531.81-.416a1 1 0 0 1 1.086.112c.46.373.993.663 1.57.856a1 1 0 0 1 .682.948V16h1.96v-.727a1 1 0 0 1 .68-.947 5.083 5.083 0 0 0 1.613-.896 1 1 0 0 1 1.134-.098l.788.45.936-1.545-.774-.43z" fill-rule="nonzero" fill="#202020"/></svg>
